teeny/solid/usb-cable.svg

<svg viewBox="0 0 15 15" xmlns="http://www.w3.org/2000/svg"><path fill-rule="evenodd" d="M11 0H4v6h7V0ZM6 4V2h1v2H6Zm2 0V2h1v2H8Z"/><path d="M12 7H3v3.5c0 .82.67 1.5 1.5 1.5H5v2h1v1h1v-1h1v1h1v-1h1v-2h.5c.82 0 1.5-.68 1.5-1.5V7Z"/></svg>

<svg width="15" height="15" viewBox="0 0 15 15" fill="none" xmlns="http://www.w3.org/2000/svg">
<path fill-rule="evenodd" clip-rule="evenodd" d="M11 0H4V6H11V0ZM6 4V2H7V4H6ZM8 4V2H9V4H8Z" fill="black"/>
<path d="M12 7H3V10.5C3 11.3284 3.67157 12 4.5 12H5V14H6V15H7V14H8V15H9V14H10V12H10.5C11.3284 12 12 11.3284 12 10.5V7Z" fill="black"/>
</svg>
